Adwaita++/emblems/16/emblem-people.svg

<svg xmlns="http://www.w3.org/2000/svg" fill="none" width="16" height="16" version="1.1" viewBox="0 0 16 16">
 <path fill="#3584E4" d="M13.6 1H2.4C1.6268 1 1 1.6268 1 2.4V13.6C1 14.3732 1.6268 15 2.4 15H13.6C14.3732 15 15 14.3732 15 13.6V2.4C15 1.6268 14.3732 1 13.6 1Z"/>
 <path style="fill:#f6f5f4" d="M 6.00390625 3.9453125 C 5.77683625 3.9453125 5.56202125 3.987705625 5.36328125 4.072265625 C 5.16583125 4.152965625 4.991213125 4.270598125 4.845703125 4.423828125 L 4.84375 4.42578125 L 4.84375 4.427734375 C 4.7021 4.581834375 4.590931875 4.7662325 4.513671875 4.9765625 C 4.434211875 5.1966925 4.3956075 5.4300425 4.3984375 5.6640625 C 4.3984375 5.9130125 4.435121875 6.14514875 4.513671875 6.35546875 C 4.590931875 6.56235875 4.7021 6.7447775 4.84375 6.8984375 L 4.845703125 6.900390625 C 4.990783125 7.053200625 5.164738125 7.1736825 5.361328125 7.2578125 L 5.36328125 7.259765625 C 5.56159125 7.340465625 5.77726625 7.37890625 6.00390625 7.37890625 C 6.23053625 7.37890625 6.44622125 7.340465625 6.64453125 7.259765625 L 6.64453125 7.2578125 C 6.83815125 7.1758725 7.011206875 7.054430625 7.154296875 6.900390625 C 7.300236875 6.746720625 7.412534375 6.56321875 7.490234375 6.35546875 C 7.569214375 6.14514875 7.607421875 5.911919375 7.607421875 5.662109375 L 7.611328125 5.662109375 C 7.611328125 5.416159375 7.572690625 5.1864625 7.494140625 4.9765625 C 7.421310625 4.7719625 7.30845625 4.58444125 7.16015625 4.42578125 C 7.01712625 4.27157125 6.841534375 4.150985625 6.646484375 4.072265625 C 6.443204375 3.987065625 6.22430625 3.9436525 6.00390625 3.9453125 z M 6.017578125 8.248046875 C 4.780948125 8.248046875 4.116666875 8.364178125 3.623046875 8.736328125 C 3.376236875 8.922618125 3.21338375 9.175393125 3.12109375 9.470703125 C 3.02924375 9.766013125 3.00043 9.9905325 3 10.3828125 L 3.4296875 10.38476562 L 8.580078125 10.38476562 L 9.009765625 10.38476562 C 9.009765625 9.992015625 8.980531875 9.766013125 8.888671875 9.470703125 C 8.797241875 9.175393125 8.635051875 8.922188125 8.388671875 8.736328125 C 7.895481875 8.363748125 7.254208125 8.248046875 6.017578125 8.248046875 z"/>
 <path style="fill:#f6f5f4" d="M 9.99609375 5.615234375 C 9.76903375 5.615234375 9.552255625 5.6576275 9.353515625 5.7421875 C 9.156065625 5.8228875 8.9814475 5.94052 8.8359375 6.09375 L 8.8359375 6.095703125 L 8.833984375 6.09765625 C 8.692334375 6.25174625 8.583119375 6.436154375 8.505859375 6.646484375 C 8.426399375 6.866614375 8.385841875 7.099964375 8.388671875 7.333984375 C 8.388671875 7.582934375 8.427309375 7.815070625 8.505859375 8.025390625 C 8.583119375 8.232280625 8.692334375 8.414699375 8.833984375 8.568359375 L 8.8359375 8.5703125 C 8.9810175 8.7231225 9.1549725 8.843604375 9.3515625 8.927734375 L 9.35546875 8.9296875 C 9.55377875 9.0103875 9.76946375 9.048828125 9.99609375 9.048828125 C 10.22272375 9.048828125 10.43646563 9.0103875 10.63476562 8.9296875 L 10.63476562 8.927734375 C 10.82846562 8.845794375 11.00338437 8.7243525 11.14648438 8.5703125 C 11.29248438 8.4166425 11.40276875 8.233140625 11.48046875 8.025390625 C 11.55936875 7.815070625 11.59765625 7.58184125 11.59765625 7.33203125 L 11.6015625 7.33203125 C 11.6015625 7.08607125 11.56492812 6.856374375 11.48632812 6.646484375 C 11.41352812 6.441884375 11.29869063 6.254363125 11.15039062 6.095703125 C 11.00729062 5.941493125 10.83171875 5.8208975 10.63671875 5.7421875 C 10.43341875 5.6569875 10.21652375 5.613574375 9.99609375 5.615234375 z M 10.0078125 9.91796875 C 8.7712025 9.91796875 8.10690125 10.03405 7.61328125 10.40625 C 7.36647125 10.59255 7.203618125 10.845325 7.111328125 11.140625 C 7.019478125 11.435925 6.990664375 11.66043437 6.990234375 12.05273438 L 7.419921875 12.0546875 L 12.5703125 12.0546875 L 13 12.0546875 C 13 11.6618875 12.97080625 11.435925 12.87890625 11.140625 C 12.78750625 10.845225 12.62520625 10.59215 12.37890625 10.40625 C 11.88570625 10.03365 11.2444125 9.91796875 10.0078125 9.91796875 z"/>
</svg>

<svg fill="none" height="16" viewBox="0 0 16 16" width="16" xmlns="http://www.w3.org/2000/svg">
  <path d="m13.6 1h-11.2c-.7732 0-1.4.6268-1.4 1.4v11.2c0 .7732.6268 1.4 1.4 1.4h11.2c.7732 0 1.4-.6268 1.4-1.4v-11.2c0-.7732-.6268-1.4-1.4-1.4z" fill="#3584e4"/>
  <g fill="#f6f5f4">
    <path d="m6.00390625 3.9453125c-.22707 0-.441885.04239313-.640625.12695313-.19745.0807-.37206812.1983325-.51757812.3515625l-.00195313.00195312v.00195313c-.14165.15409999-.25281812.33849812-.33007812.54882812-.07946.22013-.11806438.45348-.11523438.6875 0 .24895.03668438.48108625.11523438.69140625.07726.20689.18842812.38930875.33007812.54296875l.00195313.00195313c.14508.15281.319035.27329187.515625.35742187l.00195312.00195313c.19831.0807.413985.11914062.640625.11914062.22663 0 .442315-.03844062.640625-.11914062v-.00195313c.19362-.08194.36667563-.20338187.50976563-.35742187.14594-.15367.2582375-.33717188.3359375-.54492188.07898-.21032.1171875-.44354937.1171875-.69335937h.00390625c0-.24595-.0386375-.47564688-.1171875-.68554688-.07283-.2046-.18568438-.39212125-.33398438-.55078125-.14303-.15421-.31862187-.27479563-.51367187-.35351562-.20328-.0852-.42217813-.12861313-.64257813-.12695313zm.01367188 4.30273438c-1.23663 0-1.90091125.11613125-2.39453125.48828125-.24681.18629-.40966313.43906499-.50195313.734375-.09185.29531-.12066375.51982937-.12109375.91210937l.4296875.00195312h5.15039063.4296875c0-.39274999-.02923375-.61875249-.12109375-.91406249-.09143001-.29531001-.25362-.548515-.5-.734375-.49319-.37258-1.13446375-.48828125-2.37109375-.48828125z"/>
    <path d="m9.99609375 5.61523438c-.22706 0-.44383812.04239312-.64257812.12695312-.19745.0807-.37206813.1983325-.51757813.3515625v.00195313l-.00195312.00195312c-.14165.15409-.250865.33849813-.328125.54882813-.07946.22013-.1200175.45348-.1171875.6875 0 .24895.0386375.48108625.1171875.69140625.07726.20689.186475.38930875.328125.54296875l.00195312.00195312c.14508.15281.319035.27329188.515625.35742188l.00390625.00195312c.19831.0807.413995.11914063.640625.11914063s.44037188-.03844063.63867187-.11914063v-.00195312c.1937-.08194.36861875-.20338188.51171876-.35742188.146-.15367.25628437-.33717187.33398437-.54492187.0789-.21032.1171875-.44354938.1171875-.69335938h.00390625c0-.24596-.03663438-.47565687-.11523438-.68554687-.0728-.2046-.18763749-.39212125-.3359375-.55078125-.1431-.15421-.31867187-.27480563-.51367187-.35351563-.2033-.0852-.420195-.12861312-.640625-.12695312zm.01171875 4.30273437c-1.23661 0-1.90091125.11608125-2.39453125.48828125-.24681.1863-.40966312.439075-.50195312.734375-.09185.2953-.12066375.51980937-.12109375.91210938l.4296875.00195312h5.15039062.4296875c0-.3928-.02919375-.6187625-.12109375-.9140625-.0914-.2954-.2537-.548475-.5-.734375-.4932-.3726-1.13449375-.48828125-2.37109375-.48828125z"/>
  </g>
</svg>
